packages/sources/icons/src/vitamix/repair.svg

<svg width="24" height="24" viewBox="0 0 24 24" fill="none" xmlns="http://www.w3.org/2000/svg">
<path fill-rule="evenodd" clip-rule="evenodd" d="M12 21C11.028 21 10.0947 20.8407 9.2163 20.5545L10.6914 19.0812C11.1207 19.1604 11.5599 19.2 12 19.2C15.9699 19.2 19.2 15.9699 19.2 12C19.2 11.1045 19.0371 10.2288 18.7158 9.399C18.606 9.1146 18.3594 8.9058 18.0624 8.8428C17.7618 8.7798 17.4558 8.8725 17.2398 9.0867L13.1628 13.1619C13.0746 13.2501 12.9819 13.3428 12.8991 13.4229C12.8163 13.3428 12.7236 13.2501 12.6354 13.1628L10.8363 11.3637C10.7481 11.2755 10.6563 11.1828 10.5753 11.1C10.6545 11.0181 10.7463 10.9272 10.8327 10.8399L14.9124 6.7602C15.1284 6.5451 15.2193 6.2355 15.1572 5.9376C15.0942 5.6406 14.8854 5.394 14.6019 5.2842C13.7721 4.9629 12.8964 4.8 12 4.8C8.0301 4.8 4.8 8.0301 4.8 12C4.8 12.9261 4.98 13.8486 5.3256 14.7018L3.9747 16.0527C3.3564 14.8323 3 13.4589 3 12C3 7.0374 7.0374 3 12 3C16.9626 3 21 7.0374 21 12C21 16.9626 16.9626 21 12 21ZM7.24264 14.4072C6.85047 13.6579 6.65085 12.8465 6.65085 11.9958C6.65085 9.10276 9.02771 6.75 11.9504 6.75C12.1165 6.75 12.2817 6.75787 12.4459 6.77273L9.5559 9.63259C9.0021 10.1808 8.63643 10.5419 8.63731 11.1233C8.63908 11.7029 9.00475 12.0658 9.55944 12.614L11.3268 14.3635C12.5519 15.5735 13.1154 15.5735 14.3405 14.3617L17.2279 11.5053C17.2421 11.668 17.25 11.8315 17.25 11.9958C17.25 14.8889 14.8731 17.2417 11.9504 17.2417C11.4947 17.2417 11.0433 17.1848 10.607 17.0721C10.3014 16.9934 9.98164 17.0799 9.75994 17.2994L7.53412 19.5L5.25 17.2417L7.08277 15.4275C7.3557 15.1582 7.42018 14.7455 7.24264 14.4072ZM12 1.5C6.20138 1.5 1.5 6.20138 1.5 12C1.5 17.7986 6.20138 22.5 12 22.5C17.7986 22.5 22.5 17.7986 22.5 12C22.5 6.20138 17.7986 1.5 12 1.5Z" fill="#001018"/>
<mask id="mask0" mask-type="alpha" maskUnits="userSpaceOnUse" x="1" y="1" width="22" height="22">
<path fill-rule="evenodd" clip-rule="evenodd" d="M12 21C11.028 21 10.0947 20.8407 9.2163 20.5545L10.6914 19.0812C11.1207 19.1604 11.5599 19.2 12 19.2C15.9699 19.2 19.2 15.9699 19.2 12C19.2 11.1045 19.0371 10.2288 18.7158 9.399C18.606 9.1146 18.3594 8.9058 18.0624 8.8428C17.7618 8.7798 17.4558 8.8725 17.2398 9.0867L13.1628 13.1619C13.0746 13.2501 12.9819 13.3428 12.8991 13.4229C12.8163 13.3428 12.7236 13.2501 12.6354 13.1628L10.8363 11.3637C10.7481 11.2755 10.6563 11.1828 10.5753 11.1C10.6545 11.0181 10.7463 10.9272 10.8327 10.8399L14.9124 6.7602C15.1284 6.5451 15.2193 6.2355 15.1572 5.9376C15.0942 5.6406 14.8854 5.394 14.6019 5.2842C13.7721 4.9629 12.8964 4.8 12 4.8C8.0301 4.8 4.8 8.0301 4.8 12C4.8 12.9261 4.98 13.8486 5.3256 14.7018L3.9747 16.0527C3.3564 14.8323 3 13.4589 3 12C3 7.0374 7.0374 3 12 3C16.9626 3 21 7.0374 21 12C21 16.9626 16.9626 21 12 21ZM7.24264 14.4072C6.85047 13.6579 6.65085 12.8465 6.65085 11.9958C6.65085 9.10276 9.02771 6.75 11.9504 6.75C12.1165 6.75 12.2817 6.75787 12.4459 6.77273L9.5559 9.63259C9.0021 10.1808 8.63643 10.5419 8.63731 11.1233C8.63908 11.7029 9.00475 12.0658 9.55944 12.614L11.3268 14.3635C12.5519 15.5735 13.1154 15.5735 14.3405 14.3617L17.2279 11.5053C17.2421 11.668 17.25 11.8315 17.25 11.9958C17.25 14.8889 14.8731 17.2417 11.9504 17.2417C11.4947 17.2417 11.0433 17.1848 10.607 17.0721C10.3014 16.9934 9.98164 17.0799 9.75994 17.2994L7.53412 19.5L5.25 17.2417L7.08277 15.4275C7.3557 15.1582 7.42018 14.7455 7.24264 14.4072ZM12 1.5C6.20138 1.5 1.5 6.20138 1.5 12C1.5 17.7986 6.20138 22.5 12 22.5C17.7986 22.5 22.5 17.7986 22.5 12C22.5 6.20138 17.7986 1.5 12 1.5Z" fill="white"/>
</mask>
<g mask="url(#mask0)">
</g>
</svg>

<svg width="24" height="24" fill="none" xmlns="http://www.w3.org/2000/svg"><path fill-rule="evenodd" clip-rule="evenodd" d="M12 21c-.972 0-1.905-.16-2.784-.445l1.475-1.474c.43.08.869.119 1.309.119 3.97 0 7.2-3.23 7.2-7.2 0-.896-.163-1.771-.484-2.601a.9.9 0 0 0-1.476-.312l-4.077 4.075c-.088.088-.181.18-.264.26-.083-.08-.175-.172-.264-.26l-1.799-1.798c-.088-.089-.18-.181-.26-.264.079-.082.17-.173.257-.26l4.08-4.08a.9.9 0 0 0-.311-1.476A7.178 7.178 0 0 0 12 4.8c-3.97 0-7.2 3.23-7.2 7.2 0 .926.18 1.849.526 2.702l-1.351 1.35A8.937 8.937 0 0 1 3 12c0-4.963 4.037-9 9-9s9 4.037 9 9-4.037 9-9 9zm-4.757-6.593a5.15 5.15 0 0 1-.592-2.411c0-2.893 2.377-5.246 5.3-5.246.165 0 .33.008.495.023l-2.89 2.86c-.554.548-.92.909-.919 1.49.002.58.368.943.922 1.491l1.768 1.75c1.225 1.21 1.788 1.21 3.014-.002l2.887-2.857c.014.163.022.326.022.49 0 2.894-2.377 5.247-5.3 5.247-.455 0-.907-.057-1.343-.17a.886.886 0 0 0-.847.227L7.534 19.5 5.25 17.242l1.833-1.815a.866.866 0 0 0 .16-1.02zM12 1.5C6.201 1.5 1.5 6.201 1.5 12S6.201 22.5 12 22.5 22.5 17.799 22.5 12 17.799 1.5 12 1.5z" fill="#001018"/></svg>
